<?xml version="1.0" encoding="UTF-8"?>
<map version="1.10" tiledversion="1.11.2" orientation="orthogonal" renderorder="right-down" width="51" height="7" tilewidth="32" tileheight="32" infinite="0" nextlayerid="5" nextobjectid="41">
 <tileset firstgid="1" source="Background LvL_1.tsx"/>
 <tileset firstgid="204" source="Background LvL_2.tsx"/>
 <layer id="1" name="Background" width="51" height="7">
  <data encoding="csv">
204,205,206,207,208,209,210,211,212,213,214,215,216,217,218,219,220,221,222,223,224,225,226,227,228,229,230,231,232,233,234,235,236,237,238,239,240,241,242,243,244,245,246,247,248,249,250,251,252,253,254,
255,256,257,258,259,260,261,262,263,264,265,266,267,268,269,270,271,272,273,274,275,276,277,278,279,280,281,282,283,284,285,286,287,288,289,290,291,292,293,294,295,296,297,298,299,300,301,302,303,304,305,
306,307,308,309,310,311,312,313,314,315,316,317,318,319,320,321,322,323,324,325,326,327,328,329,330,331,332,333,334,335,336,337,338,339,340,341,342,343,344,345,346,347,348,349,350,351,352,353,354,355,356,
357,358,359,360,361,362,363,364,365,366,367,368,369,370,371,372,373,374,375,376,377,378,379,380,381,382,383,384,385,386,387,388,389,390,391,392,393,394,395,396,397,398,399,400,401,402,403,404,405,406,407,
408,409,410,411,412,413,414,415,416,417,418,419,420,421,422,423,424,425,426,427,428,429,430,431,432,433,434,435,436,437,438,439,440,441,442,443,444,445,446,447,448,449,450,451,452,453,454,455,456,457,458,
459,460,461,462,463,464,465,466,467,468,469,470,471,472,473,474,475,476,477,478,479,480,481,482,483,484,485,486,487,488,489,490,491,492,493,494,495,496,497,498,499,500,501,502,503,504,505,506,507,508,509,
510,511,512,513,514,515,516,517,518,519,520,521,522,523,524,525,526,527,528,529,530,531,532,533,534,535,536,537,538,539,540,541,542,543,544,545,546,547,548,549,550,551,552,553,554,555,556,557,558,559,560
</data>
 </layer>
 <objectgroup id="4" name="Mapa_Col">
  <object id="12" x="73.5" y="100" width="61" height="22.5"/>
  <object id="13" x="191.5" y="99" width="63.5" height="24.5"/>
  <object id="14" x="288.5" y="105.5" width="74" height="16.5"/>
  <object id="15" x="410.5" y="106" width="70.5" height="17"/>
  <object id="16" x="508" y="105" width="71" height="17"/>
  <object id="17" x="626" y="104" width="72.5" height="19"/>
  <object id="18" x="-13.3333" y="205.333" width="951.333" height="25.3333"/>
  <object id="20" x="907" y="204" width="747" height="41"/>
  <object id="22" x="744.333" y="112.667" width="47.3333" height="17.3333"/>
  <object id="23" x="863.667" y="113.667" width="48.3333" height="16"/>
  <object id="24" x="984.667" y="98.6667" width="46" height="14"/>
  <object id="25" x="1097" y="98.6667" width="46" height="15.6667"/>
  <object id="26" x="1322" y="111.818" width="158.909" height="16.5455"/>
  <object id="27" x="1272.88" y="161.25" width="6.75" height="6.25"/>
  <object id="28" x="1278.38" y="154.875" width="5.875" height="5.375"/>
  <object id="29" x="1283.25" y="149.875" width="5.125" height="4.875"/>
  <object id="30" x="1287.88" y="144.625" width="6.375" height="6.25"/>
  <object id="31" x="1293.5" y="139.125" width="5.875" height="5.625"/>
  <object id="32" x="1298.38" y="134.25" width="6.125" height="6"/>
  <object id="33" x="1303.25" y="129.125" width="6.5" height="6.25"/>
  <object id="34" x="1307.63" y="124.5" width="7.125" height="6.375"/>
  <object id="35" x="1312.38" y="119.875" width="6.875" height="5.75"/>
  <object id="36" x="1316.63" y="114.375" width="6.5" height="6"/>
  <object id="37" x="1048.18" y="151.909" width="30.9091" height="16.1818"/>
  <object id="38" x="807.625" y="158.75" width="28.625" height="10.375"/>
  <object id="39" x="584.125" y="152" width="30.875" height="16.5"/>
  <object id="40" x="144.25" y="150.875" width="27.625" height="18.75"/>
 </objectgroup>
</map>
